assets/ai/ai-zotero-square.svg

<svg xmlns="http://www.w3.org/2000/svg" width="100%" height="100%" viewBox="-75.52 -43.52 599.04 599.04"><path d="M 48 32 C 21.5 32 0 53.5 0 80 L 0 432 C 0 458.5 21.5 480 48 480 L 400 480 C 426.5 480 448 458.5 448 432 L 448 80 C 448 53.5 426.5 32 400 32 L 48 32 z M 116.7207 96 L 347.3457 96 L 347.3457 141.51953 L 156.56055 377.16016 L 347.3457 377.16016 L 347.3457 416 L 100.6543 416 L 100.6543 371.48047 L 292.11914 134.83984 L 116.7207 134.83984 L 116.7207 96 z"/></svg>

<svg xmlns="http://www.w3.org/2000/svg" width="100%" height="100%" viewBox="-75.52 -43.52 599.04 599.04"><path d="M48 32C21.5 32 0 53.5 0 80v352c0 26.5 21.5 48 48 48h352c26.5 0 48-21.5 48-48V80c0-26.5-21.5-48-48-48H48zm68.72 64h230.626v45.52L156.56 377.16h190.785V416H100.654v-44.52L292.12 134.84H116.721V96z"/></svg>
